packages/foundations/assets/icons/functional/images/navigation/magnifying_glass_14.svg

<svg width="14" height="14" viewBox="0 0 14 14" fill="none" xmlns="http://www.w3.org/2000/svg">
<g clip-path="url(#clip0_187_104)">
<path fill-rule="evenodd" clip-rule="evenodd" d="M6.30002 1.39999C9.00897 1.39999 11.2 3.59105 11.2 6.29999C11.2 7.41544 10.8244 8.41138 10.2325 9.23089L12.3951 11.3935C12.5317 11.5301 12.6 11.7122 12.6 11.8943C12.6 12.2804 12.2936 12.6 11.9199 12.6C11.7464 12.6 11.5642 12.5317 11.3935 12.3951L9.23092 10.2325C8.41141 10.8471 7.39271 11.2 6.30002 11.2C3.59108 11.2 1.40002 9.00894 1.40002 6.29999C1.40002 3.59105 3.59108 1.39999 6.30002 1.39999ZM6.29433 2.81138C4.35937 2.81138 2.81141 4.35934 2.81141 6.2943C2.81141 8.22926 4.35937 9.79999 6.29433 9.79999C8.22929 9.79999 9.80002 8.22926 9.80002 6.2943C9.80002 4.35934 8.22929 2.81138 6.29433 2.81138Z" fill="#1A1C1F"/>
</g>
<defs>
<clipPath id="clip0_187_104">
<rect width="14" height="14" fill="white"/>
</clipPath>
</defs>
</svg>

<svg xmlns="http://www.w3.org/2000/svg" width="14" height="14" fill="none"><g clip-path="url(#a)"><path fill="#1A1C1F" fill-rule="evenodd" d="M6.3 1.4c2.709 0 4.9 2.191 4.9 4.9a4.97 4.97 0 0 1-.967 2.93l2.162 2.163a.7.7 0 0 1 .205.501c0 .386-.306.706-.68.706a.85.85 0 0 1-.527-.205l-2.162-2.162A4.87 4.87 0 0 1 6.3 11.2a4.896 4.896 0 0 1-4.9-4.9c0-2.709 2.191-4.9 4.9-4.9m-.006 1.411a3.47 3.47 0 0 0-3.483 3.483A3.49 3.49 0 0 0 6.294 9.8 3.507 3.507 0 0 0 9.8 6.294a3.49 3.49 0 0 0-3.506-3.483" clip-rule="evenodd"/></g><defs><clipPath id="a"><path fill="#fff" d="M0 0h14v14H0z"/></clipPath></defs></svg>
